SVG_Azure_Grouped/Application/App Service Insights.svg

<?xml version="1.0" encoding="UTF-8" standalone="no"?>
<!-- Generated by Microsoft Visio, SVG Export App Service Insights.svg Page-1 -->

<svg
   xmlns:dc="http://purl.org/dc/elements/1.1/"
   xmlns:cc="http://creativecommons.org/ns#"
   xmlns:rdf="http://www.w3.org/1999/02/22-rdf-syntax-ns#"
   xmlns:svg="http://www.w3.org/2000/svg"
   xmlns="http://www.w3.org/2000/svg"
   xmlns:sodipodi="http://sodipodi.sourceforge.net/DTD/sodipodi-0.dtd"
   xmlns:inkscape="http://www.inkscape.org/namespaces/inkscape"
   width="0.55492401in"
   height="0.787444in"
   viewBox="0 0 39.954677 56.696077"
   xml:space="preserve"
   class="st5"
   version="1.1"
   id="svg71"
   sodipodi:docname="App Service Insights.svg"
   style="font-size:12px;overflow:visible;color-interpolation-filters:sRGB;fill:none;fill-rule:evenodd;stroke-linecap:square;stroke-miterlimit:3"
   inkscape:version="0.92.5 (2060ec1f9f, 2020-04-08)"><metadata
   id="metadata75"><rdf:RDF><cc:Work
       rdf:about=""><dc:format>image/svg+xml</dc:format><dc:type
         rdf:resource="http://purl.org/dc/dcmitype/StillImage" /></cc:Work></rdf:RDF></metadata><sodipodi:namedview
   pagecolor="#ffffff"
   bordercolor="#666666"
   borderopacity="1"
   objecttolerance="10"
   gridtolerance="10"
   guidetolerance="10"
   inkscape:pageopacity="0"
   inkscape:pageshadow="2"
   inkscape:window-width="640"
   inkscape:window-height="480"
   id="namedview73"
   showgrid="false"
   inkscape:zoom="1.4192955"
   inkscape:cx="26.633278"
   inkscape:cy="37.785593"
   inkscape:window-x="0"
   inkscape:window-y="0"
   inkscape:window-maximized="0"
   inkscape:current-layer="svg71" />
	<style
   type="text/css"
   id="style2">
	<![CDATA[
		.st1 {fill:#cecece;stroke:none;stroke-linecap:butt;stroke-width:34}
		.st2 {fill:url(#grad3-8);stroke:none;stroke-linecap:butt;stroke-width:34}
		.st3 {fill:url(#grad0-12);stroke:none;stroke-linecap:butt;stroke-width:34}
		.st4 {fill:#999999;stroke:none;stroke-linecap:butt;stroke-width:34}
		.st5 {fill:none;fill-rule:evenodd;font-size:12px;overflow:visible;stroke-linecap:square;stroke-miterlimit:3}
	]]>
	</style>

	<defs
   id="Patterns_And_Gradients">
		<radialGradient
   id="grad3-8"
   cx="21.221844"
   cy="95.255667"
   r="31.190503"
   gradientTransform="scale(0.93512168,1.0693796)"
   fx="21.221844"
   fy="95.255667"
   gradientUnits="userSpaceOnUse">
			<stop
   offset="0"
   stop-color="#b77af4"
   stop-opacity="1"
   id="stop4" />
			<stop
   offset="0.21"
   stop-color="#b378f2"
   stop-opacity="1"
   id="stop6" />
			<stop
   offset="0.43"
   stop-color="#a672ed"
   stop-opacity="1"
   id="stop8" />
			<stop
   offset="0.65"
   stop-color="#9267e4"
   stop-opacity="1"
   id="stop10" />
			<stop
   offset="0.88"
   stop-color="#7559d8"
   stop-opacity="1"
   id="stop12" />
			<stop
   offset="1"
   stop-color="#624fd0"
   stop-opacity="1"
   id="stop14" />
		</radialGradient>
		<linearGradient
   id="grad0-12"
   x1="-0.0023815959"
   y1="85.20671"
   x2="28.005151"
   y2="85.20671"
   gradientTransform="scale(0.90780646,1.1015564)"
   gradientUnits="userSpaceOnUse">
			<stop
   offset="0"
   stop-color="#f2f2f2"
   stop-opacity="1"
   id="stop17" />
			<stop
   offset="0.23"
   stop-color="#f1f1f2"
   stop-opacity="1"
   id="stop19" />
			<stop
   offset="0.37"
   stop-color="#ededf1"
   stop-opacity="1"
   id="stop21" />
			<stop
   offset="0.48"
   stop-color="#e7e5f0"
   stop-opacity="1"
   id="stop23" />
			<stop
   offset="0.58"
   stop-color="#dedbee"
   stop-opacity="1"
   id="stop25" />
			<stop
   offset="0.67"
   stop-color="#d3ceeb"
   stop-opacity="1"
   id="stop27" />
			<stop
   offset="0.76"
   stop-color="#c4bee8"
   stop-opacity="1"
   id="stop29" />
			<stop
   offset="0.84"
   stop-color="#b4abe5"
   stop-opacity="1"
   id="stop31" />
			<stop
   offset="0.92"
   stop-color="#a095e1"
   stop-opacity="1"
   id="stop33" />
			<stop
   offset="0.99"
   stop-color="#8b7ddc"
   stop-opacity="1"
   id="stop35" />
			<stop
   offset="1"
   stop-color="#897bdc"
   stop-opacity="1"
   id="stop37" />
		</linearGradient>
	</defs>
	<g
   id="g69"
   transform="translate(-33.999967,-33.998235)">
		<title
   id="title41">Page-1</title>
		<g
   id="group14671-1"
   transform="translate(34.1323,-34.0157)">
			<title
   id="title43">App Service Insights.14671</title>
			<g
   id="group14672-2">
				<title
   id="title45">Sheet.14672</title>
				<g
   id="shape14673-3"
   transform="translate(13.1276)">
					<title
   id="title47">Sheet.14673</title>
					<path
   d="m 10.84,124.34 2.72,-2.9 V 113.7 H 0 v 7.74 l 2.72,2.9 a 1.07438,1.06716 -180 0 0 0.64,0.37 h 6.71 a 1.07438,1.06716 -180 0 0 0.77,-0.37 z"
   class="st1"
   id="path49"
   inkscape:connector-curvature="0"
   style="fill:#cecece;stroke:none;stroke-width:34;stroke-linecap:butt" />
				</g>
				<g
   id="shape14674-5"
   transform="translate(0,-11.0051)">
					<title
   id="title52">Sheet.14674</title>
					<path
   d="M 19.84,79.02 A 19.7754,19.6424 -180 0 0 0,100.93 c 0.91,8.24 8.8,12.07 11.05,22.51 a 1.64515,1.63409 -180 0 0 1.57,1.27 h 14.44 a 1.64515,1.63409 -180 0 0 1.58,-1.27 C 30.89,113 38.71,109.17 39.69,100.93 A 19.7754,19.6424 -180 0 0 19.84,79.02 Z"
   class="st2"
   id="path54"
   inkscape:connector-curvature="0"
   style="fill:url(#grad3-8);stroke:none;stroke-width:34;stroke-linecap:butt" />
				</g>
				<g
   id="shape14675-9"
   transform="translate(7.21851,-14.8736)">
					<title
   id="title57">Sheet.14675</title>
					<path
   d="m 20.88,93.86 a 4.70043,4.66883 -180 0 0 -4.53,4.8 v 2.57 H 9.27 V 98.66 A 4.734,4.70218 -180 0 0 4.53,93.86 4.70043,4.66883 -180 0 0 0,98.66 4.734,4.70218 -180 0 0 4.53,103.5 h 2.15 v 20.01 a 1.21,1.2018711 -180 0 0 2.42,0 V 103.5 h 7.25 v 20.01 a 1.21,1.2018711 -180 1 0 2.42,0 V 103.5 h 2.11 a 4.70043,4.66883 -180 0 0 4.54,-4.84 4.70043,4.66883 -180 0 0 -4.54,-4.8 z m -14.2,7.37 H 4.4 A 2.48451,2.46781 0 0 1 2.12,98.66 2.48451,2.46781 0 0 1 4.4,96.1 2.48451,2.46781 0 0 1 6.68,98.66 Z m 14.37,0 h -2.28 v -2.7 a 2.28306,2.26772 0 1 1 4.53,0 2.45094,2.43446 0 0 1 -2.25,2.7 z"
   class="st3"
   id="path59"
   inkscape:connector-curvature="0"
   style="fill:url(#grad0-12);stroke:none;stroke-width:34;stroke-linecap:butt" />
				</g>
				<g
   id="shape14676-13"
   transform="translate(12.9933,-2.13432)">
					<title
   id="title62">Sheet.14676</title>
					<path
   d="m 0,121.17 13.7,-2.63 v -1.5 L 0,119.71 Z m 13.7,1.04 v -1.47 L 0,123.44 v 0.14 l 1.04,1.13 z"
   class="st4"
   id="path64"
   inkscape:connector-curvature="0"
   style="fill:#999999;stroke:none;stroke-width:34;stroke-linecap:butt" />
				</g>
			</g>
		</g>
	</g>
</svg>

<?xml version="1.0" encoding="UTF-8" standalone="no"?>
<!DOCTYPE svg PUBLIC "-//W3C//DTD SVG 1.1//EN" "http://www.w3.org/Graphics/SVG/1.1/DTD/svg11.dtd">
<!-- Generated by Microsoft Visio, SVG Export App Service Insights.svg Page-1 -->
<svg xmlns="http://www.w3.org/2000/svg" xmlns:xlink="http://www.w3.org/1999/xlink" xmlns:ev="http://www.w3.org/2001/xml-events"
		width="1.4993in" height="1.73208in" viewBox="0 0 107.95 124.71" xml:space="preserve" color-interpolation-filters="sRGB"
		class="st5">
	<style type="text/css">
	<![CDATA[
		.st1 {fill:#cecece;stroke:none;stroke-linecap:butt;stroke-width:34}
		.st2 {fill:url(#grad3-8);stroke:none;stroke-linecap:butt;stroke-width:34}
		.st3 {fill:url(#grad0-12);stroke:none;stroke-linecap:butt;stroke-width:34}
		.st4 {fill:#999999;stroke:none;stroke-linecap:butt;stroke-width:34}
		.st5 {fill:none;fill-rule:evenodd;font-size:12px;overflow:visible;stroke-linecap:square;stroke-miterlimit:3}
	]]>
	</style>

	<defs id="Patterns_And_Gradients">
		<radialGradient id="grad3-8" cx="0.5" cy="0.5" r="0.73">
			<stop offset="0" stop-color="#b77af4" stop-opacity="1"/>
			<stop offset="0.21" stop-color="#b378f2" stop-opacity="1"/>
			<stop offset="0.43" stop-color="#a672ed" stop-opacity="1"/>
			<stop offset="0.65" stop-color="#9267e4" stop-opacity="1"/>
			<stop offset="0.88" stop-color="#7559d8" stop-opacity="1"/>
			<stop offset="1" stop-color="#624fd0" stop-opacity="1"/>
		</radialGradient>
		<linearGradient id="grad0-12" x1="0" y1="0" x2="1" y2="0" gradientTransform="rotate(89.445837686356 0.5 0.5)">
			<stop offset="0" stop-color="#f2f2f2" stop-opacity="1"/>
			<stop offset="0.23" stop-color="#f1f1f2" stop-opacity="1"/>
			<stop offset="0.37" stop-color="#ededf1" stop-opacity="1"/>
			<stop offset="0.48" stop-color="#e7e5f0" stop-opacity="1"/>
			<stop offset="0.58" stop-color="#dedbee" stop-opacity="1"/>
			<stop offset="0.67" stop-color="#d3ceeb" stop-opacity="1"/>
			<stop offset="0.76" stop-color="#c4bee8" stop-opacity="1"/>
			<stop offset="0.84" stop-color="#b4abe5" stop-opacity="1"/>
			<stop offset="0.92" stop-color="#a095e1" stop-opacity="1"/>
			<stop offset="0.99" stop-color="#8b7ddc" stop-opacity="1"/>
			<stop offset="1" stop-color="#897bdc" stop-opacity="1"/>
		</linearGradient>
	</defs>
	<g>
		<title>Page-1</title>
		<g id="group14314-1" transform="translate(34.1323,-34.0157)">
			<title>App Service Insights.14314</title>
			<g id="group14315-2">
				<title>Sheet.14315</title>
				<g id="shape14316-3" transform="translate(13.1276,-1.13687E-13)">
					<title>Sheet.14316</title>
					<path d="M10.84 124.34 L13.56 121.44 L13.56 113.7 L0 113.7 L0 121.44 L2.72 124.34 A1.07438 1.06716 -180 0 0 3.36
								 124.71 L10.07 124.71 A1.07438 1.06716 -180 0 0 10.84 124.34 Z" class="st1"/>
				</g>
				<g id="shape14317-5" transform="translate(0,-11.0051)">
					<title>Sheet.14317</title>
					<path d="M19.84 79.02 A19.7754 19.6424 -180 0 0 0 100.93 C0.91 109.17 8.8 113 11.05 123.44 A1.64515 1.63409 -180
								 0 0 12.62 124.71 L27.06 124.71 A1.64515 1.63409 -180 0 0 28.64 123.44 C30.89 113 38.71 109.17 39.69
								 100.93 A19.7754 19.6424 -180 0 0 19.84 79.02 Z" class="st2"/>
				</g>
				<g id="shape14318-9" transform="translate(7.21851,-14.8736)">
					<title>Sheet.14318</title>
					<path d="M20.88 93.86 A4.70043 4.66883 -180 0 0 16.35 98.66 L16.35 101.23 L9.27 101.23 L9.27 98.66 A4.734 4.70218
								 -180 0 0 4.53 93.86 A4.70043 4.66883 -180 0 0 -0 98.66 A4.734 4.70218 -180 0 0 4.53 103.5 L6.68
								 103.5 L6.68 123.51 A1.20868 1.20056 -180 0 0 9.1 123.51 L9.1 103.5 L16.35 103.5 L16.35 123.51 A1.20868
								 1.20056 -180 1 0 18.77 123.51 L18.77 103.5 L20.88 103.5 A4.70043 4.66883 -180 0 0 25.42 98.66 A4.70043
								 4.66883 -180 0 0 20.88 93.86 ZM6.68 101.23 L4.4 101.23 A2.48451 2.46781 0 0 1 2.12 98.66 A2.48451
								 2.46781 0 0 1 4.4 96.1 A2.48451 2.46781 0 0 1 6.68 98.66 L6.68 101.23 ZM21.05 101.23 L18.77 101.23
								 L18.77 98.53 A2.28306 2.26772 0 1 1 23.3 98.53 A2.45094 2.43446 0 0 1 21.05 101.23 Z" class="st3"/>
				</g>
				<g id="shape14319-13" transform="translate(12.9933,-2.13432)">
					<title>Sheet.14319</title>
					<path d="M0 121.17 L13.7 118.54 L13.7 117.04 L0 119.71 L0 121.17 ZM13.7 122.21 L13.7 120.74 L0 123.44 L0 123.58
								 L1.04 124.71 L13.7 122.21 Z" class="st4"/>
				</g>
			</g>
		</g>
	</g>
</svg>
